X: 112
T:The Gobby O
% Nottingham Music Database
S:FTB 2/42, via EF
M:6/8
K:Am
P:A
A/2B/2|"Am"c2A A^GA|"Am"E2A A^GA|"G"B2G GBc|"G"dBG GAB|
"Am"c2A A^GA|"Am"E2A A2e|"Em""C"edc " ""G"BAG|"Am"E2A A2:|
P:B
E|"Am"A2B c2d|"Em"e2^f g2e|"D"^faf "C"g2e|"G"dBG GAB|
"Am"A2B c2d|"Am"e^fe a2f|"Em""C"edc " ""G"BAB|"Am"c2A A2:|<end>
<start>
